X:1
T:Title
%%score { ( 1 3 ) | ( 2 4 ) }
L:1/8
M:4/4
K:Ab
V:1 treble nm="Grand Piano"
V:3 treble 
V:2 bass 
V:4 bass 
V:1
 z4 z2 z[Q:1/4=92] E | cAGA FEEE | z4 [EAce]4 | cAGA FEEE | z4 [EGBe]4 | z4 [EGBe]4 | z4 [EAce]4 | %7
 dcBA GF E2 |[M:7/8] [DE]2 B>B [DEA]3 |] %9
V:2
 z8 | A,,2 [E,A,C]2 E,,2 [E,A,C]2 | z E z E E,,2 z E | A,,2 [E,A,C]2 E,,2 [E,A,C]2 | %4
 z E z E E,,2 E,2 | z2 [E,G,B,D]2 z4 | z2 [E,A,C]2 z4 | B,,2 [E,G,B,D]2 E,,2 [E,G,B,D]2 | %8
[M:7/8] [E,,E,]2 [DE]>[DE] [A,,E,A,]3 |] %9
V:3
 x8 | x8 | [EAce][Ace][EAce][Ac] z2 [A,C]2 | x8 | [EAce][Ace][EAce][GB] z2 [G,B,D]2 | %5
 [EGBe]2 [EGBe]>[GB] z2 [G,B,D]2 | [EAce]2 [EAce]>[Ac] z2 [A,C]2 | x8 |[M:7/8] x7 |] %9
V:4
 x8 | x8 | A,,2 [E,A,C]2 z2 E,2 | x8 | B,,2 [E,G,B,D]2 z4 | B,,2 z z/ E/ E,,2 E,2 | %6
 A,,2 z z/ E/ E,,2 E,2 | x8 |[M:7/8] z2 [E,G,]2 z z2 |] %9

